X: 705
T: Aggie's
R: mazurka
M: 3/4
K: Dmajor
A2|d2 d>c d>e|f2 d>A F>G|(3ABA A>F A>B|B>A G>F E>^d|
e2 e>^d e>f|g2 e>d d>c|(3cdc B2 G>B|B2 A>G (3FGA|
d2- d>c d>e|f2 d>A F>G|A2- A>F A>B|B>A G>F E2|
(3efe e2 (3^def|g>f e>d d>c|(3ABA B2 c2|d2- d3/2||
|:e/ f>g|(3fgf d2 fg|(3fgf d2 f>g|a2 a>f g>f|(3efe e>^d e>f|
(3efe c2 e>f|(3efe A2 e>f|g2 g>e f>e|1 d2- d3/2:|2 d4||

